; generated by PrusaSlicer 2.9.0 on 2025-02-15 at 23:47:09 UTC

; 

; external perimeters extrusion width = 0.45mm
; perimeters extrusion width = 0.45mm
; infill extrusion width = 0.45mm
; solid infill extrusion width = 0.45mm
; top infill extrusion width = 0.40mm
; support material extrusion width = 0.40mm
; first layer extrusion width = 0.70mm

M104 S200 ; set temperature
;TYPE:Custom
G28 ; home all axes
G1 Z5 F5000 ; lift nozzle
M109 S200 ; set temperature and wait for it to be reached
G21 ; set units to millimeters
G90 ; use absolute coordinates
M82 ; use absolute distances for extrusion
G92 E0
; Filament gcode
M107
;LAYER_CHANGE
;Z:0.35
;HEIGHT:0.35
G1 E-2 F2400
G1 Z.35 F7800
G1 X71.967 Y68.143
G1 E.00001 F2400
;TYPE:Skirt/Brim
;WIDTH:0.7
G1 F1800
G1 X72.762 Y67.304 E.1051
G1 X74.51 Y66.004 E.30318
G1 X85.973 Y60.307 E1.46714
G1 X88.757 Y59.66 E1.72703
G1 X111.243 Y59.66 E3.77167
G1 X114.027 Y60.307 E4.03156
G1 X125.49 Y66.004 E5.19552
G1 X127.238 Y67.304 E5.3936
G1 X132.608 Y72.975 E6.10377
G1 X133.535 Y74.237 E6.24615
G1 X136.954 Y80.408 E6.88764
G1 X139.492 Y86.079 E7.45259
G1 X140.042 Y88.658 E7.69237
G1 X140.042 Y111.494 E9.76884
G1 X139.465 Y114.13 E10.01421
G1 X136.703 Y120.092 E10.61168
G1 X133.535 Y125.763 E11.20235
G1 X132.608 Y127.025 E11.34473
G1 X127.238 Y132.696 E12.0549
G1 X125.49 Y133.996 E12.25298
G1 X114.027 Y139.693 E13.41694
G1 X111.243 Y140.34 E13.67683
G1 X88.757 Y140.34 E15.72147
G1 X85.973 Y139.693 E15.98136
G1 X74.51 Y133.996 E17.14532
G1 X72.762 Y132.696 E17.3434
G1 X67.392 Y127.025 E18.05357
G1 X66.465 Y125.763 E18.19595
G1 X63.046 Y119.592 E18.83744
G1 X60.508 Y113.921 E19.40239
G1 X59.958 Y111.342 E19.64217
G1 X59.958 Y88.506 E21.71864
G1 X60.535 Y85.87 E21.96401
G1 X63.297 Y79.908 E22.56148
G1 X66.465 Y74.237 E23.15215
G1 X67.392 Y72.975 E23.29453
G1 X71.926 Y68.187 E23.89413
G1 E21.89413 F2400
G92 E0
G1 X71.926 Y68.187 F7800
G92 E0
G1 X133.73 Y111.494
G1 E2 F2400
;TYPE:Support material interface
;WIDTH:0.4
G1 F1800
G1 X133.73 Y88.658 E3.07959
G1 X133.394 Y88.658 E3.09547
G1 X133.394 Y111.342 E4.16787
G1 X133.058 Y111.342 E4.18375
G1 X133.058 Y88.658 E5.25615
G1 X132.723 Y88.658 E5.27199
G1 X132.723 Y111.342 E6.34439
G1 X132.387 Y111.342 E6.36027
G1 X132.387 Y104.005 E6.70713
G1 X132.052 Y106.184 E6.81135
G1 X132.052 Y111.342 E7.0552
G1 X131.716 Y111.342 E7.07108
G1 X131.716 Y107.721 E7.24227
G1 X131.38 Y108.974 E7.3036
G1 X131.38 Y111.342 E7.41555
G1 X131.192 Y111.342 E7.42444
G1 X131.192 Y117.014 E7.69259
G1 X131.045 Y117.014 E7.69954
G1 X131.045 Y110.06 E8.02829
G1 X130.709 Y111.048 E8.07763
G1 X130.709 Y117.014 E8.35968
G1 X130.373 Y117.014 E8.37556
G1 X130.373 Y111.948 E8.61506
G1 X130.038 Y112.755 E8.65637
G1 X130.038 Y117.014 E8.85772
G1 X129.702 Y117.014 E8.8736
G1 X129.702 Y113.539 E9.03788
G1 X129.367 Y114.232 E9.07427
G1 X129.367 Y117.014 E9.20579
G1 X129.031 Y117.014 E9.22167
G1 X129.031 Y114.923 E9.32052
G1 X128.695 Y115.542 E9.35382
G1 X128.695 Y117.014 E9.42341
G1 X128.36 Y117.014 E9.43925
G1 X128.36 Y116.156 E9.47981
G1 X128.024 Y116.724 E9.51101
G1 X128.024 Y122.685 E9.79282
G1 X127.689 Y122.685 E9.80866
G1 X127.689 Y117.275 E10.06442
G1 X127.353 Y117.808 E10.09421
G1 X127.353 Y122.685 E10.32477
G1 X127.017 Y122.685 E10.34065
G1 X127.017 Y118.304 E10.54776
G1 X126.682 Y118.8 E10.57606
G1 X126.682 Y122.685 E10.75973
G1 X126.346 Y122.685 E10.77561
G1 X126.346 Y119.261 E10.93748
G1 X126.01 Y119.709 E10.96395
G1 X126.01 Y122.685 E11.10464
G1 X125.675 Y122.685 E11.12048
G1 X125.675 Y120.157 E11.23999
G1 X125.339 Y120.566 E11.26501
G1 X125.339 Y125.521 E11.49926
G1 X125.004 Y125.521 E11.5151
G1 X125.004 Y120.972 E11.73016
G1 X124.668 Y121.379 E11.75511
G1 X124.668 Y125.521 E11.95093
G1 X124.332 Y125.521 E11.96681
G1 X124.332 Y121.748 E12.14518
G1 X123.997 Y122.117 E12.16874
G1 X123.997 Y125.521 E12.32967
G1 X123.661 Y125.521 E12.34555
G1 X123.661 Y122.486 E12.48903
G1 X123.325 Y122.826 E12.51163
G1 X123.325 Y125.521 E12.63904
G1 X122.99 Y125.521 E12.65488
G1 X122.99 Y123.161 E12.76645
G1 X122.654 Y123.497 E12.78891
G1 X122.654 Y128.356 E13.01862
G1 X122.319 Y128.356 E13.03446
G1 X122.319 Y123.813 E13.24923
G1 X121.983 Y124.119 E13.27071
G1 X121.983 Y128.356 E13.47102
G1 X121.647 Y128.356 E13.4869
G1 X121.647 Y124.424 E13.67279
G1 X121.312 Y124.723 E13.69402
G1 X121.312 Y128.356 E13.86577
G1 X120.976 Y128.356 E13.88165
G1 X120.976 Y125 E14.04031
G1 X120.641 Y125.278 E14.06089
G1 X120.641 Y128.356 E14.2064
G1 X120.305 Y128.356 E14.22228
G1 X120.305 Y125.555 E14.3547
G1 X119.969 Y125.816 E14.37481
G1 X119.969 Y128.356 E14.49489
G1 X119.634 Y128.356 E14.51073
G1 X119.634 Y126.067 E14.61894
G1 X119.298 Y126.318 E14.63877
G1 X119.298 Y128.356 E14.73512
G1 X118.962 Y128.356 E14.751
G1 X118.962 Y126.569 E14.83548
G1 X118.627 Y126.799 E14.85469
G1 X118.627 Y128.356 E14.9283
G1 X118.291 Y128.356 E14.94418
G1 X118.291 Y127.026 E15.00706
G1 X117.956 Y127.253 E15.02619
G1 X117.956 Y128.356 E15.07834
G1 X117.62 Y128.356 E15.09422
G1 X117.62 Y127.478 E15.13573
G1 X117.284 Y127.683 E15.15434
G1 X117.284 Y128.356 E15.18616
G1 X117.014 Y128.356 E15.19892
G1 X117.014 Y131.192 E15.33299
G1 X116.949 Y131.192 E15.33606
G1 X116.949 Y127.887 E15.49231
G1 X116.613 Y128.092 E15.51092
G1 X116.613 Y131.192 E15.65747
G1 X116.277 Y131.192 E15.67335
G1 X116.277 Y128.294 E15.81035
G1 X115.942 Y128.477 E15.8284
G1 X115.942 Y131.192 E15.95675
G1 X115.606 Y131.192 E15.97263
G1 X115.606 Y128.66 E16.09233
G1 X115.271 Y128.843 E16.11038
G1 X115.271 Y131.192 E16.22143
G1 X114.935 Y131.192 E16.23731
G1 X114.935 Y129.025 E16.33976
G1 X114.599 Y129.188 E16.35742
G1 X114.599 Y131.192 E16.45216
G1 X114.264 Y131.192 E16.468
G1 X114.264 Y129.351 E16.55503
G1 X113.928 Y129.514 E16.57269
G1 X113.928 Y131.192 E16.65202
G1 X113.593 Y131.192 E16.66786
G1 X113.593 Y129.677 E16.73948
G1 X113.257 Y129.823 E16.7568
G1 X113.257 Y131.192 E16.82152
G1 X112.921 Y131.192 E16.8374
G1 X112.921 Y129.967 E16.89531
G1 X112.586 Y130.11 E16.91253
G1 X112.586 Y131.192 E16.96368
G1 X112.25 Y131.192 E16.97956
G1 X112.25 Y130.254 E17.0239
G1 X111.914 Y130.386 E17.04097
G1 X111.914 Y131.192 E17.07907
G1 X111.579 Y131.192 E17.09491
G1 X111.579 Y130.511 E17.1271
G1 X111.243 Y130.636 E17.14405
G1 X111.243 Y134.027 E17.30436
G1 X110.908 Y134.027 E17.3202
G1 X110.908 Y130.761 E17.4746
G1 X110.572 Y130.881 E17.49147
G1 X110.572 Y134.027 E17.6402
G1 X110.236 Y134.027 E17.65608
G1 X110.236 Y130.988 E17.79975
G1 X109.901 Y131.096 E17.81639
G1 X109.901 Y134.027 E17.95495
G1 X109.565 Y134.027 E17.97083
G1 X109.565 Y131.203 E18.10434
G1 X109.229 Y131.31 E18.12101
G1 X109.229 Y134.027 E18.24946
G1 X108.894 Y134.027 E18.2653
G1 X108.894 Y131.402 E18.3894
G1 X108.558 Y131.492 E18.40584
G1 X108.558 Y134.027 E18.52568
G1 X108.223 Y134.027 E18.54152
G1 X108.223 Y131.582 E18.65711
G1 X107.887 Y131.672 E18.67355
G1 X107.887 Y134.027 E18.78488
G1 X107.551 Y134.027 E18.80076
G1 X107.551 Y131.754 E18.90822
G1 X107.216 Y131.827 E18.92443
G1 X107.216 Y134.027 E19.02844
G1 X106.88 Y134.027 E19.04432
G1 X106.88 Y131.9 E19.14488
G1 X106.545 Y131.973 E19.16109
G1 X106.545 Y134.027 E19.25819
G1 X106.209 Y134.027 E19.27407
G1 X106.209 Y132.046 E19.36772
G1 X105.873 Y132.104 E19.38384
G1 X105.873 Y134.027 E19.47475
G1 X105.538 Y134.027 E19.49059
G1 X105.538 Y132.161 E19.57881
G1 X105.202 Y132.217 E19.59491
G1 X105.202 Y134.027 E19.68048
G1 X104.866 Y134.027 E19.69636
G1 X104.866 Y132.274 E19.77923
G1 X104.531 Y132.324 E19.79524
G1 X104.531 Y134.027 E19.87575
G1 X104.195 Y134.027 E19.89163
G1 X104.195 Y132.365 E19.9702
G1 X103.86 Y132.405 E19.98615
G1 X103.86 Y134.027 E20.06283
G1 X103.524 Y134.027 E20.07871
G1 X103.524 Y132.445 E20.1535
G1 X103.188 Y132.485 E20.1695
G1 X103.188 Y134.027 E20.2424
G1 X102.853 Y134.027 E20.25824
G1 X102.853 Y132.513 E20.32982
G1 X102.517 Y132.537 E20.34575
G1 X102.517 Y134.027 E20.41619
G1 X102.181 Y134.027 E20.43207
G1 X102.181 Y132.561 E20.50138
G1 X101.846 Y132.585 E20.51726
G1 X101.846 Y134.027 E20.58543
G1 X101.51 Y134.027 E20.60131
G1 X101.51 Y132.607 E20.66844
G1 X101.175 Y132.615 E20.68428
G1 X101.175 Y134.027 E20.75103
G1 X100.839 Y134.027 E20.76691
G1 X100.839 Y132.623 E20.83329
G1 X100.503 Y132.631 E20.84918
G1 X100.503 Y134.027 E20.91518
G1 X100.168 Y134.027 E20.93102
G1 X100.168 Y132.639 E20.99664
G1 X99.832 Y132.639 E21.01252
G1 X99.832 Y134.027 E21.07814
G1 X99.497 Y134.027 E21.09398
G1 X99.497 Y132.631 E21.15998
G1 X99.161 Y132.623 E21.17587
G1 X99.161 Y134.027 E21.24225
G1 X98.825 Y134.027 E21.25813
G1 X98.825 Y132.615 E21.32488
G1 X98.49 Y132.607 E21.34072
G1 X98.49 Y134.027 E21.40785
G1 X98.154 Y134.027 E21.42373
G1 X98.154 Y132.585 E21.4919
G1 X97.818 Y132.561 E21.50783
G1 X97.818 Y134.027 E21.57714
G1 X97.483 Y134.027 E21.59298
G1 X97.483 Y132.537 E21.66342
G1 X97.147 Y132.513 E21.67935
G1 X97.147 Y134.027 E21.75093
G1 X96.812 Y134.027 E21.76677
G1 X96.812 Y132.485 E21.83967
G1 X96.476 Y132.445 E21.85567
G1 X96.476 Y134.027 E21.93046
G1 X96.14 Y134.027 E21.94634
G1 X96.14 Y132.405 E22.02302
G1 X95.805 Y132.364 E22.03898
G1 X95.805 Y134.027 E22.1176
G1 X95.469 Y134.027 E22.13348
G1 X95.469 Y132.324 E22.21399
G1 X95.133 Y132.273 E22.23006
G1 X95.133 Y134.027 E22.31298
G1 X94.798 Y134.027 E22.32882
G1 X94.798 Y132.217 E22.41439
G1 X94.462 Y132.161 E22.43049
G1 X94.462 Y134.027 E22.51871
G1 X94.127 Y134.027 E22.53455
G1 X94.127 Y132.104 E22.62546
G1 X93.791 Y132.046 E22.64158
G1 X93.791 Y134.027 E22.73523
G1 X93.455 Y134.027 E22.75111
G1 X93.455 Y131.973 E22.84821
G1 X93.12 Y131.9 E22.86442
G1 X93.12 Y134.027 E22.96498
G1 X92.784 Y134.027 E22.98086
G1 X92.784 Y131.827 E23.08487
G1 X92.449 Y131.754 E23.10108
G1 X92.449 Y134.027 E23.20854
G1 X92.113 Y134.027 E23.22442
G1 X92.113 Y131.672 E23.33575
G1 X91.777 Y131.582 E23.35219
G1 X91.777 Y134.027 E23.46778
G1 X91.442 Y134.027 E23.48362
G1 X91.442 Y131.492 E23.60346
G1 X91.106 Y131.402 E23.6199
G1 X91.106 Y134.027 E23.744
G1 X90.77 Y134.027 E23.75988
G1 X90.77 Y131.31 E23.88833
G1 X90.435 Y131.203 E23.90496
G1 X90.435 Y134.027 E24.03847
G1 X90.099 Y134.027 E24.05435
G1 X90.099 Y131.096 E24.19291
G1 X89.764 Y130.988 E24.20955
G1 X89.764 Y134.027 E24.35322
G1 X89.428 Y134.027 E24.3691
G1 X89.428 Y130.881 E24.51783
G1 X89.092 Y130.761 E24.5347
G1 X89.092 Y134.027 E24.6891
G1 X88.757 Y134.027 E24.70494
G1 X88.757 Y130.636 E24.86525
G1 X88.421 Y130.511 E24.8822
G1 X88.421 Y131.192 E24.91439
G1 X88.085 Y131.192 E24.93027
G1 X88.085 Y130.386 E24.96837
G1 X87.75 Y130.254 E24.98539
G1 X87.75 Y131.192 E25.02973
G1 X87.414 Y131.192 E25.04561
G1 X87.414 Y130.11 E25.09676
G1 X87.079 Y129.967 E25.11398
G1 X87.079 Y131.192 E25.17189
G1 X86.743 Y131.192 E25.18777
G1 X86.743 Y129.823 E25.25249
G1 X86.407 Y129.677 E25.26981
G1 X86.407 Y131.192 E25.34143
G1 X86.072 Y131.192 E25.35727
G1 X86.072 Y129.514 E25.4366
G1 X85.736 Y129.351 E25.45426
G1 X85.736 Y131.192 E25.54129
G1 X85.401 Y131.192 E25.55713
G1 X85.401 Y129.188 E25.65187
G1 X85.065 Y129.025 E25.66953
G1 X85.065 Y131.192 E25.77198
G1 X84.729 Y131.192 E25.78786
G1 X84.729 Y128.843 E25.89891
G1 X84.394 Y128.66 E25.91696
G1 X84.394 Y131.192 E26.03666
G1 X84.058 Y131.192 E26.05254
G1 X84.058 Y128.477 E26.18089
G1 X83.722 Y128.294 E26.19898
G1 X83.722 Y131.192 E26.33598
G1 X83.387 Y131.192 E26.35182
G1 X83.387 Y128.092 E26.49837
G1 X83.051 Y127.887 E26.51698
G1 X83.051 Y131.192 E26.67323
G1 X82.986 Y131.192 E26.6763
G1 X82.986 Y128.356 E26.81037
G1 X82.716 Y128.356 E26.82313
G1 X82.716 Y127.683 E26.85495
G1 X82.38 Y127.478 E26.87356
G1 X82.38 Y128.356 E26.91507
G1 X82.044 Y128.356 E26.93095
G1 X82.044 Y127.253 E26.9831
G1 X81.709 Y127.026 E27.00223
G1 X81.709 Y128.356 E27.06511
G1 X81.373 Y128.356 E27.08099
G1 X81.373 Y126.798 E27.15465
G1 X81.037 Y126.569 E27.17387
G1 X81.037 Y128.356 E27.25835
G1 X80.702 Y128.356 E27.27419
G1 X80.702 Y126.318 E27.37054
G1 X80.366 Y126.067 E27.39037
G1 X80.366 Y128.356 E27.49858
G1 X80.031 Y128.356 E27.51442
G1 X80.031 Y125.816 E27.6345
G1 X79.695 Y125.555 E27.65461
G1 X79.695 Y128.356 E27.78703
G1 X79.359 Y128.356 E27.80291
G1 X79.359 Y125.278 E27.94842
G1 X79.024 Y125 E27.969
G1 X79.024 Y128.356 E28.12766
G1 X78.688 Y128.356 E28.14354
G1 X78.688 Y124.723 E28.31529
G1 X78.353 Y124.424 E28.33652
G1 X78.353 Y128.356 E28.52241
G1 X78.017 Y128.356 E28.53829
G1 X78.017 Y124.118 E28.73864
G1 X77.681 Y123.813 E28.76009
G1 X77.681 Y128.356 E28.97486
G1 X77.346 Y128.356 E28.9907
G1 X77.346 Y123.497 E29.22041
G1 X77.01 Y123.161 E29.24287
G1 X77.01 Y125.521 E29.35444
G1 X76.674 Y125.521 E29.37032
G1 X76.674 Y122.825 E29.49778
G1 X76.339 Y122.486 E29.52031
G1 X76.339 Y125.521 E29.66379
G1 X76.003 Y125.521 E29.67967
G1 X76.003 Y122.117 E29.8406
G1 X75.668 Y121.748 E29.86416
G1 X75.668 Y125.521 E30.04253
G1 X75.332 Y125.521 E30.05841
G1 X75.332 Y121.378 E30.25427
G1 X74.996 Y120.972 E30.27918
G1 X74.996 Y125.521 E30.49424
G1 X74.661 Y125.521 E30.51008
G1 X74.661 Y120.566 E30.74433
G1 X74.325 Y120.157 E30.76935
G1 X74.325 Y122.685 E30.88886
G1 X73.989 Y122.685 E30.90474
G1 X73.989 Y119.709 E31.04543
G1 X73.654 Y119.261 E31.07188
G1 X73.654 Y122.685 E31.23375
G1 X73.318 Y122.685 E31.24963
G1 X73.318 Y118.799 E31.43334
G1 X72.983 Y118.303 E31.46164
G1 X72.983 Y122.685 E31.6688
G1 X72.647 Y122.685 E31.68468
G1 X72.647 Y117.808 E31.91524
G1 X72.311 Y117.275 E31.94503
G1 X72.311 Y122.685 E32.20079
G1 X71.976 Y122.685 E32.21663
G1 X71.976 Y116.724 E32.49844
G1 X71.64 Y116.156 E32.52964
G1 X71.64 Y117.014 E32.5702
G1 X71.305 Y117.014 E32.58604
G1 X71.305 Y115.542 E32.65563
G1 X70.969 Y114.923 E32.68893
G1 X70.969 Y117.014 E32.78778
G1 X70.633 Y117.014 E32.80366
G1 X70.633 Y114.232 E32.93518
G1 X70.298 Y113.539 E32.97157
G1 X70.298 Y117.014 E33.13585
G1 X69.962 Y117.014 E33.15173
G1 X69.962 Y112.755 E33.35308
G1 X69.626 Y111.947 E33.39445
G1 X69.626 Y117.014 E33.634
G1 X69.291 Y117.014 E33.64984
G1 X69.291 Y111.047 E33.93193
G1 X68.955 Y110.059 E33.98127
G1 X68.955 Y117.014 E34.31007
G1 X68.808 Y117.014 E34.31702
G1 X68.808 Y111.342 E34.58517
G1 X68.62 Y111.342 E34.59406
G1 X68.62 Y108.973 E34.70606
G1 X68.284 Y107.721 E34.76734
G1 X68.284 Y111.342 E34.93853
G1 X67.948 Y111.342 E34.95441
G1 X67.948 Y106.184 E35.19826
G1 X67.613 Y104.005 E35.30248
G1 X67.613 Y111.342 E35.64934
G1 X67.277 Y111.342 E35.66522
G1 X67.277 Y88.658 E36.73762
G1 X67.613 Y88.658 E36.7535
G1 X67.613 Y95.995 E37.10036
G1 X67.948 Y93.816 E37.20458
G1 X67.948 Y88.658 E37.44843
G1 X68.284 Y88.658 E37.46431
G1 X68.284 Y92.279 E37.6355
G1 X68.62 Y91.027 E37.69678
G1 X68.62 Y88.658 E37.80878
G1 X68.808 Y88.658 E37.81767
G1 X68.808 Y82.986 E38.08582
G1 X68.955 Y82.986 E38.09277
G1 X68.955 Y89.941 E38.42157
G1 X69.291 Y88.953 E38.47091
G1 X69.291 Y82.986 E38.753
G1 X69.626 Y82.986 E38.76884
G1 X69.626 Y88.053 E39.00839
G1 X69.962 Y87.245 E39.04976
G1 X69.962 Y82.986 E39.25111
G1 X70.298 Y82.986 E39.26699
G1 X70.298 Y86.461 E39.43127
G1 X70.633 Y85.768 E39.46766
G1 X70.633 Y82.986 E39.59918
G1 X70.969 Y82.986 E39.61506
G1 X70.969 Y85.077 E39.71391
G1 X71.305 Y84.458 E39.74721
G1 X71.305 Y82.986 E39.8168
G1 X71.64 Y82.986 E39.83264
G1 X71.64 Y83.844 E39.8732
G1 X71.976 Y83.276 E39.9044
G1 X71.976 Y77.315 E40.18621
G1 X72.311 Y77.315 E40.20205
G1 X72.311 Y82.725 E40.45781
G1 X72.647 Y82.192 E40.4876
G1 X72.647 Y77.315 E40.71816
G1 X72.983 Y77.315 E40.73404
G1 X72.983 Y81.697 E40.9412
G1 X73.318 Y81.201 E40.9695
G1 X73.318 Y77.315 E41.15321
G1 X73.654 Y77.315 E41.16909
G1 X73.654 Y80.739 E41.33096
G1 X73.989 Y80.291 E41.35741
G1 X73.989 Y77.315 E41.4981
G1 X74.325 Y77.315 E41.51398
G1 X74.325 Y79.843 E41.63349
G1 X74.661 Y79.434 E41.65851
G1 X74.661 Y74.479 E41.89276
G1 X74.996 Y74.479 E41.9086
G1 X74.996 Y79.028 E42.12366
G1 X75.332 Y78.622 E42.14857
G1 X75.332 Y74.479 E42.34443
G1 X75.668 Y74.479 E42.36031
G1 X75.668 Y78.252 E42.53868
G1 X76.003 Y77.883 E42.56224
G1 X76.003 Y74.479 E42.72317
G1 X76.339 Y74.479 E42.73905
G1 X76.339 Y77.514 E42.88253
G1 X76.674 Y77.175 E42.90506
G1 X76.674 Y74.479 E43.03252
G1 X77.01 Y74.479 E43.0484
G1 X77.01 Y76.839 E43.15997
G1 X77.346 Y76.503 E43.18243
G1 X77.346 Y71.644 E43.41214
G1 X77.681 Y71.644 E43.42798
